assets/images/by_residence_w.svg

<svg fill="none" height="17" viewBox="0 0 20 17" width="20" xmlns="http://www.w3.org/2000/svg"><path d="m0 16.4998v-9.16663l6.25-4.16667 6.25 4.16667v9.16663h-4.16667v-5.8333h-4.16666v5.8333zm20-15.833296v15.833296h-5.8333v-10.0583l-.8334-.55v-1.89166h-1.6666v.775l-3.33337-2.21667v-1.891666zm-2.5 9.999996h-1.6667v1.6667h1.6667zm0-3.33333h-1.6667v1.66667h1.6667zm0-3.33333h-1.6667v1.66666h1.6667z" fill="#fff"/></svg>

<svg width="20" height="17" viewBox="0 0 20 17" fill="none" xmlns="http://www.w3.org/2000/svg">
<path d="M0 16.4998V7.33317L6.25 3.1665L12.5 7.33317V16.4998H8.33333V10.6665H4.16667V16.4998H0ZM20 0.666504V16.4998H14.1667V6.4415L13.3333 5.8915V3.99984H11.6667V4.77484L8.33333 2.55817V0.666504H20ZM17.5 10.6665H15.8333V12.3332H17.5V10.6665ZM17.5 7.33317H15.8333V8.99984H17.5V7.33317ZM17.5 3.99984H15.8333V5.6665H17.5V3.99984Z" fill="white"/>
</svg>
